!!!COM:	Josquin des Prez
!!!CDT:	~1450-1521/08/27
!!!COA: Ockeghem
!!!OPR:	Missa Gaudeamus
!!!ONM:	3
!!!OTL:	Credo
!!!AGN:	Mass; Credo
!!!SCT:	NJE 4.2
!!!SCA:	New Josquin Edition 4.2
!!!voices: 4
!!!voices-OPR:	4
**kern	**kern	**kern	**kern
*staff4	*staff3	*staff2	*staff1
*Ivox	*Ivox	*Ivox	*Ivox
*I"Bassus	*I"Tenor	*I"Altus	*I"Superius
*I'B	*I'T	*I'A	*I'S
*>[A,B,C,D]	*>[A,B,C,D]	*>[A,B,C,D]	*>[A,B,C,D]
*>Credo[A]	*>Credo[A]	*>Credo[A]	*>Credo[A]
*>Incarnatus[B]	*>Incarnatus[B]	*>Incarnatus[B]	*>Incarnatus[B]
*>Spiritum[C]	*>Spiritum[C]	*>Spiritum[C]	*>Spiritum[C]
*>Sanctam[D]	*>Sanctam[D]	*>Sanctam[D]	*>Sanctam[D]
*>A	*>A	*>A	*>A
*clefF4	*clefGv2	*clefGv2	*clefG2
*k[]	*k[]	*k[]	*k[]
*M3/1	*M3/1	*M3/1	*M3/1
*met(O)	*met(O)	*met(O)	*met(O)
!!section: Patrem
!!!OMD: Patrem
=1-	=1-	=1-	=1-
2.G\	0G	1r	0.r
4A\	.	.	.
2B\	.	1r	.
2E\	.	.	.
1r	1A	2.c\	.
.	.	4d\	.
=2	=2	=2	=2
1r	1A	2e\	0.r
.	.	2A/	.
2.A\	1.e	1r	.
4B\	.	.	.
2c\	.	2r	.
2F\	2d\	2A/	.
=3	=3	=3	=3
2G\	1e	2B\	0.r
2A\	.	2c\	.
0D	1.f	2d\	.
.	.	2A/	.
.	.	2.d\	.
.	2e\	.	.
.	.	4c\	.
=4	=4	=4	=4
0E	0e	4B\	0g
.	.	4A/	.
.	.	2c\	.
.	.	1B	.
1r	1r	2A/	1a
.	.	[2f\	.
=5	=5	=5	=5
0.r	0.r	4f\]	1a
.	.	8e\L	.
.	.	8d\J	.
.	.	2f\	.
.	.	2e\	1.ee
.	.	1a	.
.	.	2f\	2dd\
=6	=6	=6	=6
0.r	0.r	2g\	1ee
.	.	1a	.
.	.	.	1.ff
.	.	2d\	.
.	.	2r	.
.	.	[2a\	2ee\
=7	=7	=7	=7
0.r	0.r	2a\]	0ee
.	.	2g\	.
.	.	2a\	.
.	.	2g\	.
.	.	2.a\	2r
.	.	.	[2ee\
.	.	4g\	.
=8	=8	=8	=8
0.r	0.r	2e\	2ee\]
.	.	4f\	2dd\
.	.	2g\	.
.	.	.	2ee\
.	.	4a\	.
.	.	2f\	2dd\
.	.	2.e\	2.ee\
.	.	4f\	4dd\
=9	=9	=9	=9
2r	0.e	2g\	2b\
1A	.	2.c\	1cc
.	.	4A/	.
2G\	.	2B\	2b\
2A\	.	2A/	2cc\
2G\	.	2E/	2b\
=10	=10	=10	=10
2.A\	[0.e	1c	2.cc\
8G\L	.	.	4b\
8F\J	.	.	.
2E\	.	2B\	2g/
1c	.	2A/	1a
.	.	1E	.
2B\	.	.	2g/
=11	=11	=11	=11
2A\	0e]	1c	2a/
1c	.	.	2g/
.	.	1r	2e/
2A\	.	.	1a
1B	1d	1G	.
.	.	.	2g#i/
=12	=12	=12	=12
0.A	[0.e	1.c	1a
.	.	.	0cc
.	.	2A/	.
.	.	1a	.
=13	=13	=13	=13
2.E\	0e]	1.g	2r
.	.	.	1b
4F\	.	.	.
2G\	.	.	.
2A\	.	2e\	2cc\
1D	1d	1f	2dd\
.	.	.	2dd\
=14	=14	=14	=14
1A	1c	1e	1ee
1B-	0d	2r	2dd\
.	.	2d\	2cc\
1G	.	1g	1b
=15	=15	=15	=15
1D	1d	2.f\	1a
.	.	4e\	.
1A	0e	2.c\	1r
.	.	8B/L	.
.	.	8A/J	.
2E\	.	2B\	1r
2A\	.	2c\	.
=16	=16	=16	=16
4G\	1.g	2B\	1r
4F\	.	.	.
4E\	.	2.e\	.
4D\	.	.	.
2C/	.	.	1r
.	.	4d\	.
2D\	2f\	1d	.
1A	1e	.	1ee
.	.	2c#i\	.
=17	=17	=17	=17
0.r	1d	2d\	1ff
.	.	2B-\	.
.	1e	4c\	2ee\
.	.	4B-i\	.
.	.	4A/	2cc\
.	.	4G/	.
.	2f\	2F/	2dd\
.	2e\	2c\	[2ee\
=18	=18	=18	=18
1r	1f	1d	4ee\]
.	.	.	4dd\
.	.	.	1dd
1r	1e	1A	.
.	.	.	2cc#i\
1D	1f	2r	1dd
.	.	2A/	.
=19	=19	=19	=19
2E\	1e	2G/	2b\
2AA/	.	2.A/	2cc\
2D\	2f\	.	2dd\
.	.	4B\	.
2C/	2e\	2c\	1ee
2.D\	1f	2.F/	.
.	.	.	2dd\
4C/	.	4G/	.
=20	=20	=20	=20
2AA/	0.e	2A/	2cc\
2GG/	.	2B\	2.b\
1AA	.	2c\	.
.	.	.	4a/
.	.	2A/	1a
1E	.	1B	.
.	.	.	2g#i/
=21	=21	=21	=21
1F	0.r	2r	2a/
.	.	2A/	2.cc\
1E	.	1e	.
.	.	.	4b\
.	.	.	1ee
2r	.	1f	.
2D\	.	.	2dd\
=22	=22	=22	=22
1A	0.r	2e\	2ee\
.	.	2.a\	2cc\
1B-i	.	.	2.dd\
.	.	4f\	.
.	.	2g\	.
.	.	.	4ee\
1A	.	2.a\	2ff\
.	.	.	[2ee\
.	.	4g\	.
=23	=23	=23	=23
0.r	0.r	2e\	4ee\]
.	.	.	4cc\
.	.	2.f\	4dd\
.	.	.	4cc\
.	.	.	2a/
.	.	4e\	.
.	.	2c\	2ee\
.	.	2.d\	2dd\
.	.	.	[2ff\
.	.	4c\	.
=24	=24	=24	=24
0.r	0.r	2A/	4ff\]
.	.	.	4ee\
.	.	2e\	2cc\
.	.	2d\	2.dd\
.	.	2.f\	.
.	.	.	4cc\
.	.	.	4a/
.	.	4e\	4g/
.	.	2c\	[2cc\
=25	=25	=25	=25
2r	0.r	2d\	4cc\]
.	.	.	8b/L
.	.	.	8a/J
2G\	.	2B\	2b\
2A\	.	2c\	2e/
2G\	.	2d\	2b\
2A\	.	2c\	2cc\
2D\	.	2d\	2a/
=26	=26	=26	=26
2.G\	0.r	2B\	1b
.	.	2.e\	.
4E\	.	.	.
2A\	.	.	2cc\
.	.	4d\	.
2G\	.	2B\	2.dd\
2A\	.	2c\	.
.	.	.	4cc\
2D\	.	2d\	4b\
.	.	.	4a/
=27	=27	=27	=27
2E\	0e	2B\	0g
1C	.	1c	.
1G	.	2.B\	.
.	[1d	.	1r
.	.	4G/	.
2F\	.	2A/	.
=28	=28	=28	=28
1B-	1d]	2G/	0.r
.	.	2d\	.
0A	0c	2e\	.
.	.	2.f\	.
.	.	8e\L	.
.	.	8d\J	.
.	.	2e\	.
=29	=29	=29	=29
2r	[0.d	0f	1a
1.D	.	.	.
.	.	.	1a
1G	.	2g\	1b-
.	.	2d\	.
=30	=30	=30	=30
2D\	0d]	4f\	2a/
.	.	4e\	.
1G	.	4d\	1b-i
.	.	4c\	.
.	.	2.B-\	.
2F\	.	.	2a/
.	.	4A/	.
2.B-\	1d	1G	1b-i
4A\	.	.	.
=31	=31	=31	=31
2F\	2c\	2r	1a
2.G\	2.B-i\	0d	.
.	.	.	2g/
4F\	4A/	.	.
2D\	1A	.	2f/
2.E-\	.	.	2.g/
.	2G/	2c\	.
4D\	.	.	4f/
=32	=32	=32	=32
1BB-	1d	1f	2d/
.	.	.	2.b-i\
2r	2c\	1F	.
.	.	.	4a/
2.F\	2A/	.	1a
.	1B-i	1G	.
8E\L	.	.	.
8D\J	.	.	.
2E\	.	.	2g/
=33	=33	=33	=33
4F\	2A/	2r	1a
4E\	.	.	.
4D\	1d	2F/	.
4C/	.	.	.
2BB-i/	.	2G/	1r
2AA/	2c\	2.A/	.
1BB-i	1d	.	1r
.	.	8G/L	.
.	.	8F/J	.
.	.	2G/	.
=34	=34	=34	=34
1AA	1c	1A	0.r
2r	1r	1c	.
2.A\	.	.	.
.	1r	1B	.
8G#i\L	.	.	.
8F#i\J	.	.	.
2G#i\	.	.	.
=35	=35	=35	=35
4A\	0.r	2r	2r
4G\	.	.	.
4F\	.	2A/	2.a/
4E\	.	.	.
2D\	.	2B\	.
.	.	.	4g/
2C/	.	2.c\	2e/
1D	.	.	1f
.	.	8B/L	.
.	.	8A/J	.
.	.	2B\	.
=36	=36	=36	=36
1C	0.r	1c	1e
2r	.	1e	1r
2.c\	.	.	.
.	.	1d	1r
8B\L	.	.	.
8A\J	.	.	.
2B\	.	.	.
=37	=37	=37	=37
4c\	0.r	2r	2r
4B\	.	.	.
4A\	.	2c\	2.cc\
4G\	.	.	.
2F\	.	2d\	.
.	.	.	4b\
2E\	.	2.e\	2g/
1F	.	.	1a
.	.	8d\L	.
.	.	8c\J	.
.	.	2d\	.
=38	=38	=38	=38
2E\	[0.c	1e	2g/
2.A\	.	.	2.cc\
.	.	0A	.
4G\	.	.	4b\
2.F\	.	.	2.a/
4E\	.	.	4g/
4F\	.	.	4a/
4E\	.	.	4g/
=39	=39	=39	=39
2C/	0.c_	0e	1e
2.c\	.	.	.
.	.	.	1r
4B\	.	.	.
2.A\	.	.	.
.	.	1A	1a
4G\	.	.	.
4A\	.	.	.
4G\	.	.	.
=40	=40	=40	=40
2E\	0.c]	1r	2g/
2.F\	.	.	2.a/
.	.	1F	.
4E\	.	.	4g/
4F\	.	.	4a/
4D\	.	.	4b\
1E	.	1G	4cc\
.	.	.	4b\
.	.	.	4a/
.	.	.	4g/
=41	=41	=41	=41
0.D	[0.d	1A	0.f
.	.	2r	.
.	.	2B-\	.
.	.	2A/	.
.	.	2F/	.
=42	=42	=42	=42
2r	0.d_	2.G/	1r
2B-\	.	.	.
.	.	4F/	.
2A\	.	2D/	1r
2F\	.	2A/	.
2.G\	.	2B-i\	2r
.	.	2G/	2b-\
4F\	.	.	.
=43	=43	=43	=43
1D	0.d]	1A	2a/
.	.	.	2f/
0B-i	.	0G	2.g/
.	.	.	4f/
.	.	.	1d
=44	=44	=44	=44
1A	[0.e	1c	2c/
.	.	.	2cc\
2G\	.	2r	2b\
2A\	.	1c	4a/
.	.	.	2cc\
1E	.	.	.
.	.	.	4b\
.	.	2B\	2g/
=45	=45	=45	=45
2r	0.e_	4A/	2a/
.	.	2c\	.
2c\	.	.	2e/
.	.	4B\	.
2B\	.	2G/	2r
4A\	.	2A/	1cc
2c\	.	.	.
.	.	2E/	.
4B\	.	.	.
2G\	.	2r	2b\
=46	=46	=46	=46
2A\	0.e_	1c	2a/
1E	.	.	1g
.	.	2B\	.
2c\	.	2A/	4e/
.	.	.	4f/
4B\	.	2G/	4g/
4A\	.	.	4a/
4G\	.	2E/	[2b\
4F\	.	.	.
=47	=47	=47	=47
2E\	0.e]	2G/	4b\]
.	.	.	4a/
2AA/	.	2A/	1a
1E	.	1B	.
.	.	.	2g/
1AA	.	1A	2a/
.	.	.	2cc\
=48	=48	=48	=48
2r	[0.g	0G	1b
2.E\	.	.	.
.	.	.	2r
4D\	.	.	.
4E\	.	.	2e/
4F\	.	.	.
2G\	.	2r	2d/
2C/	.	2c\	2e/
=49	=49	=49	=49
2.E\	0.g]	2B\	2r
.	.	2c\	2e/
4F\	.	.	.
2G\	.	2r	2d/
2C/	.	2c\	2e/
2G\	.	2B\	2r
2C/	.	2c\	2e/
=50	=50	=50	=50
4D\	[0.f	2A/	2d/
4E\	.	.	.
4F\	.	2d\	1a
4G\	.	.	.
2A\	.	2c\	.
2B-\	.	2d\	2d/
2A\	.	2r	2c/
2D\	.	2d\	2d/
=51	=51	=51	=51
2A\	0f]	2c\	2r
2D\	.	2d\	2dd\
2.F\	.	1A	2cc\
.	.	.	2.dd\
8E\L	.	.	.
8D\J	.	.	.
2A\	1e	1r	.
.	.	.	8cc#i\L
.	.	.	8b\J
2AA/	.	.	2cc#i\
=52	=52	=52	=52
2.D\	1f	2r	1dd
.	.	2d\	.
4C/	.	.	.
2AA/	2e\	2c\	1r
2BB/	2d\	2.d\	.
2AA/	1e	.	1r
.	.	8c#i\L	.
.	.	8B\J	.
2A\	.	2c#i\	.
=53	=53	=53	=53
1B-i	1d	4d\	2r
.	.	4e\	.
.	.	4f\	2dd\
.	.	4g\	.
1A	0e	1a	2cc\
.	.	.	2.dd\
2r	.	1A	.
.	.	.	8cc#i\L
.	.	.	8b\J
2A\	.	.	2cc#i\
=54	=54	=54	=54
2.B\	0.d	1r	1dd
4c\	.	.	.
2d\	.	1f	1a
2D\	.	.	.
2.G\	.	2g\	1b-i
.	.	[2d\	.
4F\	.	.	.
=55	=55	=55	=55
2D\	0.r	4d\]	2a/
.	.	4B\	.
2A\	.	2c\	2f/
2B\	.	2d\	2g/
2c\	.	2e\	2.a/
2d\	.	4f\	.
.	.	4e\	4g/
2D\	.	4d\	2a/
.	.	4c\	.
=56	=56	=56	=56
2.G\	0.r	2d\	2b-i\
.	.	2G/	1g
4F\	.	.	.
2D\	.	1A	.
2A\	.	.	2f#i/
2.B\	.	1G	1g
4c\	.	.	.
=57	=57	=57	=57
2d\	0.r	1r	2r
2D\	.	.	2f/
2G\	.	2B\	2g/
2F\	.	2c\	2.a/
1D	.	1d	.
.	.	.	4b\
.	.	.	2dd\
=58	=58	=58	=58
1r	0.r	1e	2cc\
.	.	.	2.b\
2r	.	2d\	.
.	.	.	4a/
2C/	.	2c\	1a
2D\	.	1B	.
2E\	.	.	2g#i/
=59	=59	=59	=59
2.F\	0c	2A/	2a/
.	.	2a\	1cc
4E\	.	.	.
2C/	.	2g\	.
2F\	.	2a\	2a/
2G\	1e	2g\	2b\
2A\	.	2e\	2cc\
=60	=60	=60	=60
2D\	1d	2f\	2dd\
2G\	.	2g\	2b\
2C/	1g	2e\	2cc\
2G\	.	2.d\	1dd
2D\	2f\	.	.
.	.	4c\	.
[2G\	[2g\	4B\	2dd\
.	.	4A/	.
=61	=61	=61	=61
4G\]	2g\]	2B\	2dd\
4F\	.	.	.
2D\	1f	2.A/	2dd\
2F\	.	.	2cc\
.	.	4B\	.
2C/	2e\	1c	2.ee\
1D	1f	.	.
.	.	.	4dd\
.	.	2B\	[2dd\
=62	=62	=62	=62
1AA	2e\	2c\	2dd\]
.	2.f\	2A/	2cc\
1r	.	2B\	2dd\
.	4d\	.	.
.	2e\	2c\	2cc\
1D	1f	1d	2.a/
.	.	.	4b\
=63	=63	=63	=63
1A	0.e	2c\	4cc\
.	.	.	4b\
.	.	2.e\	2.cc\
2G\	.	.	.
.	.	4d\	4b\
2A\	.	4c\	1a
.	.	8B/L	.
.	.	8A/J	.
1E	.	1B	.
.	.	.	2g#i/
=64	=64	=64	=64
0.AAl	0.el	0.Al	0.al
!!LO:LB:i:g=z
=65||	=65||	=65||	=65||
*>B	*>B	*>B	*>B
!!section: Et incarnatus
!!!OMD: Et incarnatus
*clefF4	*clefGv2	*clefGv2	*clefG2
*k[]	*k[]	*k[]	*k[]
*M2/1	*M2/1	*M2/1	*M2/1
*met(C|)	*met(C|)	*met(C|)	*met(C|)
0r	0r	0d	0r
=66	=66	=66	=66
0r	0r	1c	0r
.	.	1d	.
=67	=67	=67	=67
0r	0r	1c	0r
.	.	1Bni	.
=68	=68	=68	=68
0r	0r	1.A	0a
.	.	[2c\	.
=69	=69	=69	=69
0r	0r	4c\]	1g
.	.	4B\	.
.	.	2.e\	.
.	.	.	1a
.	.	4d\	.
.	.	[2f\	.
=70	=70	=70	=70
0r	0r	4f\]	1g
.	.	4e\	.
.	.	1e	.
.	.	.	1f
.	.	2d\	.
=71	=71	=71	=71
0A	0r	1e	0e
.	.	1c	.
=72	=72	=72	=72
1G	0r	2d\	1r
.	.	1e	.
1A	.	.	1e
.	.	4d\	.
.	.	4c\	.
=73	=73	=73	=73
1G	0r	2d\	1g
.	.	1e	.
1F	.	.	1a
.	.	2d\	.
=74	=74	=74	=74
[0E	0r	2.g\	2.b\
.	.	4f\	4a/
.	.	4e\	2b\
.	.	4d\	.
.	.	[2e\	[2cc\
=75	=75	=75	=75
0E]	0r	2e\]	2cc\]
.	.	4d\	4b\
.	.	4c\	4a/
.	.	2B\	2.g/
.	.	[2e\	.
.	.	.	4a/
=76	=76	=76	=76
0r	0r	4e\]	4b\
.	.	4d\	4cc\
.	.	2.f\	2.dd\
.	.	4e\	4cc\
.	.	4d\	4b\
.	.	4c\	4a/
=77	=77	=77	=77
0r	0r	4d\	2b\
.	.	4c\	.
.	.	4B\	1a
.	.	4A/	.
.	.	2B\	.
.	.	[2c\	2g#i/
=78	=78	=78	=78
1F	0r	2c\]	1a
.	.	1d	.
1D	.	.	1r
.	.	[2B\	.
=79	=79	=79	=79
1E	0r	2B\]	0r
.	.	1c	.
1F	.	.	.
.	.	[2d\	.
=80	=80	=80	=80
0G	0r	4d\]	0r
.	.	4c\	.
.	.	4B\	.
.	.	4A/	.
.	.	1B	.
=81	=81	=81	=81
[0A	0r	1A	1e
.	.	1r	1f
=82	=82	=82	=82
0A]	0r	1e	1e
.	.	1f	1a
=83	=83	=83	=83
0r	0r	1e	2g/
.	.	.	2e/
.	.	1a	2.f/
.	.	.	4g/
=84	=84	=84	=84
0r	0r	2g\	2e/
.	.	2e\	2g/
.	.	2.f\	2f/
.	.	.	[2d/
.	.	4g\	.
=85	=85	=85	=85
0A	0r	1e	2d/]
.	.	.	4c#i/
.	.	.	4B/
.	.	2r	1c#i
.	.	[2a\	.
=86	=86	=86	=86
0B-	0r	2a\]	0d
.	.	4g\	.
.	.	4f\	.
.	.	1g	.
=87	=87	=87	=87
1A	0r	2r	0r
.	.	1c	.
1F	.	.	.
.	.	[2d\	.
=88	=88	=88	=88
1G	0r	2d\]	0r
.	.	2e\	.
2A\	.	2c\	.
!! Ficta flat sign removed from Bassus 2011/04/20
[2B\	.	[2d\	.
=89	=89	=89	=89
4B\]	0r	2d\]	1r
4A\	.	.	.
1G	.	4c\	.
.	.	4B\	.
.	.	1A	1a
2F#i\	.	.	.
=90	=90	=90	=90
0G	0r	1G	2.b\
.	.	.	4cc\
.	.	2r	2dd\
.	.	[2g\	[2ee\
=91	=91	=91	=91
0r	0r	2g\]	2ee\]
.	.	2a\	2ff\
.	.	2f\	2dd\
.	.	[2g\	[2ee\
=92	=92	=92	=92
0r	0r	2g\]	4ee\]
.	.	.	4dd\
.	.	4f\	1cc
.	.	4e\	.
.	.	1d	.
.	.	.	2b\
=93	=93	=93	=93
0A	0r	1r	0cc
.	.	1a	.
=94	=94	=94	=94
0B-	0r	2g\	1r
.	.	1f	.
.	.	.	1dd
.	.	4e\	.
.	.	4d\	.
=95	=95	=95	=95
1A	0r	1e	1cc
1F	.	1a	1ff
=96	=96	=96	=96
1G	0r	1g	1ee
1B-i	.	[1f	[1dd
=97	=97	=97	=97
0A	0r	2f\]	2dd\]
.	.	2e\	2cc\
.	.	1c	[1cc
=98	=98	=98	=98
1G	0r	0d	2cc\]
.	.	.	4b\
.	.	.	4a/
2r	.	.	1b
2G\	.	.	.
=99	=99	=99	=99
1A	0r	1r	1e
1G	.	1d	1r
=100	=100	=100	=100
1E	0r	1e	2r
.	.	.	2g/
1r	.	1d	1a
=101	=101	=101	=101
2r	0r	1B	1g
2G\	.	.	.
1A	.	1r	1e
=102	=102	=102	=102
1G	0r	2r	1r
.	.	2d\	.
1E	.	1e	2r
.	.	.	2g/
=103	=103	=103	=103
2F\	0r	1d	1a
2D\	.	.	.
1E	.	1B	1g
=104	=104	=104	=104
1r	0r	2c\	2e/
.	.	2A/	2f/
2r	.	1B	2d/
2G\	.	.	[2e/
=105	=105	=105	=105
1A	0r	1r	2e/]
.	.	.	2f/
1G	.	2r	[1g
.	.	2d\	.
=106	=106	=106	=106
1E	0r	1e	2g/]
.	.	.	4f/
.	.	.	4g/
2F\	.	1d	1a
2D\	.	.	.
=107	=107	=107	=107
2E\	0r	1B	1r
2G\	.	.	.
1F	.	2c\	1a
.	.	2A/	.
=108	=108	=108	=108
1E	0r	2B\	2g/
.	.	2c\	2e/
1r	.	1d	2.f/
.	.	.	4g/
=109	=109	=109	=109
0r	0r	1e	2e/
.	.	.	2g/
.	.	1r	2f/
.	.	.	[2g/
=110	=110	=110	=110
0r	0r	1e	4g/]
.	.	.	4f/
.	.	.	1e
.	.	1f	.
.	.	.	2d/
=111	=111	=111	=111
0r	0r	2e\	2e/
.	.	2c\	2g/
.	.	2d\	2f/
.	.	[2e\	[2g/
=112	=112	=112	=112
0r	0r	4e\]	4g/]
.	.	4d\	4f/
.	.	1d	4e/
.	.	.	4d/
.	.	.	1e
.	.	2c#i\	.
=113	=113	=113	=113
2r	0r	1d	1d
2G\	.	.	.
2F\	.	1r	1r
[2G\	.	.	.
=114	=114	=114	=114
4G\]	0r	1e	0r
4F\	.	.	.
1E	.	.	.
.	.	1f	.
2D\	.	.	.
=115	=115	=115	=115
2E\	0r	2e\	0r
2.F\	.	2c\	.
.	.	2d\	.
4E\	.	.	.
[2G\	.	[2e\	.
=116	=116	=116	=116
4G\]	0r	4e\]	1r
4F\	.	4d\	.
4E\	.	1d	.
4D\	.	.	.
1E	.	.	2.g/
.	.	2c\	.
.	.	.	4a/
=117	=117	=117	=117
1D	0r	2d\	4b\
.	.	.	4cc\
.	.	2.f\	2.dd\
1r	.	.	.
.	.	4e\	4cc\
.	.	[2g\	[2ee\
=118	=118	=118	=118
0r	0r	4g\]	4ee\]
.	.	4f\	4dd\
.	.	4e\	1dd
.	.	4d\	.
.	.	1e	.
.	.	.	2cc#i\
=119	=119	=119	=119
1D	0r	0d	0dd
[1G	.	.	.
=120	=120	=120	=120
2G\]	0r	1G	0r
2E\	.	.	.
1F	.	[1c	.
=121	=121	=121	=121
0E	0r	2c\]	1r
.	.	2A/	.
.	.	1B	1g
=122	=122	=122	=122
0r	0r	1A	1.cc
.	.	2r	.
.	.	[2d\	2a/
=123	=123	=123	=123
1r	0r	2d\]	1b
.	.	2B\	.
2r	.	2c\	1a
2D\	.	2d\	.
=124	=124	=124	=124
1.G	0r	2.B\	0r
.	.	4c\	.
.	.	2d\	.
2E\	.	[2e\	.
=125	=125	=125	=125
1F	0r	2e\]	1r
.	.	2d\	.
2.E\	.	1e	2r
.	.	.	[2g/
4F\	.	.	.
=126	=126	=126	=126
2G\	0r	0r	2g/]
1A	.	.	2e/
.	.	.	2f/
2G\	.	.	2g/
=127	=127	=127	=127
1.c	0r	0r	2.e/
.	.	.	4f/
.	.	.	2g/
2A\	.	.	[2a/
=128	=128	=128	=128
1B	0r	1r	2a/]
.	.	.	2g#i/
1A	.	1e	1a
=129	=129	=129	=129
1D	0r	1f	1r
1r	.	1e	1b
=130	=130	=130	=130
0r	0r	2A/	1cc
.	.	2.e\	.
.	.	.	2.b\
.	.	4d\	.
.	.	2B\	.
.	.	.	4g/
=131	=131	=131	=131
0r	0r	2c\	2a/
.	.	2d\	1b
.	.	2B\	.
.	.	[2e\	[2cc\
=132	=132	=132	=132
0r	0r	4e\]	4cc\]
.	.	4d\	4b\
.	.	2.f\	2.dd\
.	.	4e\	4cc\
.	.	4d\	4b\
.	.	4c\	4a/
=133	=133	=133	=133
2r	0r	2B\	1g
2E\	.	2e\	.
2F\	.	2d\	1r
2G\	.	[2e\	.
=134	=134	=134	=134
2E\	0r	4e\]	0r
.	.	4d\	.
2G\	.	2B\	.
2A\	.	2c\	.
[2B\	.	2d\	.
=135	=135	=135	=135
4B\]	0r	2A/	2r
4A\	.	.	.
1A	.	2c\	2e/
.	.	1B	2f/
2G#i\	.	.	2g/
=136	=136	=136	=136
2A\	0r	2r	2e/
2E\	.	2e\	2g/
2F\	.	2d\	2a/
2G\	.	2B\	[2b\
=137	=137	=137	=137
2E\	0r	1c	4b\]
.	.	.	4a/
2C/	.	.	1a
2D\	.	1B	.
2E\	.	.	2g#i/
=138	=138	=138	=138
1AA	0r	2r	2a/
.	.	1A	2e/
1r	.	.	2f/
.	.	2G/	2g/
=139	=139	=139	=139
0r	0r	2A/	2e/
.	.	2e\	2c/
.	.	2f\	2d/
.	.	2g\	2e/
=140	=140	=140	=140
0r	0r	2e\	2A/
.	.	2c\	2e/
.	.	2d\	2f/
.	.	[2e\	2g/
=141	=141	=141	=141
1r	0r	2e\]	2e/
.	.	4d\	1g
.	.	4c\	.
2.E\	.	2.B\	.
.	.	.	4f/
4F\	.	4A/	4e/
=142	=142	=142	=142
2G\	0r	0B	0d
2G\	.	.	.
1G	.	.	.
=143	=143	=143	=143
2r	0r	2r	1r
2A\	.	2c\	.
2G\	.	2B\	2.e/
2A\	.	2c\	.
.	.	.	4f/
=144	=144	=144	=144
[0E	0r	2B\	2g/
.	.	2c\	2g/
.	.	2B\	2g/
.	.	[2e\	2g/
=145	=145	=145	=145
0E]	0r	2e\]	2g/
.	.	2c\	2g/
.	.	1B	1g
=146	=146	=146	=146
0r	0r	1A	2r
.	.	.	2.a/
.	.	2r	.
.	.	.	4g/
.	.	2c\	2e/
=147	=147	=147	=147
1r	0r	2d\	2f/
.	.	2B\	2g/
2r	.	2.c\	1e
[2A\	.	.	.
.	.	4d\	.
=148	=148	=148	=148
4A\]	0r	1e	2r
4G\	.	.	.
2E\	.	.	2g/
2F\	.	1r	2a/
2G\	.	.	[2b\
=149	=149	=149	=149
2E\	0r	2r	4b\]
.	.	.	4a/
2G\	.	1e	2b\
2A\	.	.	2cc\
2B\	.	2d\	2dd\
=150	=150	=150	=150
1E	0r	2.e\	2b\
.	.	.	2.cc\
.	.	4c\	.
2.F\	.	2c\	.
.	.	.	4a/
.	.	[2f\	[2a/
4D\	.	.	.
=151	=151	=151	=151
1D	0r	4f\]	2a/]
.	.	4d\	.
.	.	2d\	2b\
1r	.	4e\	2g/
.	.	4d\	.
.	.	[2f\	[2a/
=152	=152	=152	=152
0r	0r	4f\]	2a/]
.	.	4e\	.
.	.	1e	2g/
.	.	.	1f
.	.	2d\	.
=153	=153	=153	=153
1r	0r	2e\	0e
.	.	2.g\	.
1C	.	.	.
.	.	4f\	.
.	.	[2a\	.
=154	=154	=154	=154
1D	0r	4a\]	0r
.	.	4g\	.
.	.	4f\	.
.	.	4e\	.
1D	.	1f	.
=155	=155	=155	=155
1E	0r	1e	1r
1A	.	1c	1cc
=156	=156	=156	=156
2G\	0r	1d	2b\
1F	.	.	1a
.	.	1d	.
4E\	.	.	4g/
4D\	.	.	4f/
=157	=157	=157	=157
2C/	0r	1e	2e/
2.c\	.	.	2.ee\
.	.	1c	.
4B\	.	.	4dd\
2A\	.	.	2cc\
=158	=158	=158	=158
2G\	0r	1d	2b\
1F	.	.	1a
.	.	1c	.
2E\	.	.	2g/
=159	=159	=159	=159
2D\	0r	0d	2f/
2C/	.	.	2e/
1BB	.	.	1d
=160	=160	=160	=160
0AAl	0r	0el	0cl
!!LO:LB:i:g=z
=161||	=161||	=161||	=161||
*>C	*>C	*>C	*>C
!!section: Et in Spiritum
!!!OMD: Et in Spiritum
*clefF4	*clefGv2	*clefGv2	*clefG2
*k[]	*k[]	*k[]	*k[]
*M2/1	*M2/1	*M2/1	*M2/1
*met(C|)	*met(C|)	*met(C|)	*met(C|)
1E	[0c	0r	1g
1E	.	.	1g
=162	=162	=162	=162
1F	0c_	0r	1a
2E\	.	.	2g/
[2F\	.	.	[2a/
=163	=163	=163	=163
2F\]	0c_	1r	2a/]
4E\	.	.	4g/
4D\	.	.	4f/
[1C	.	1g	1e
=164	=164	=164	=164
1C]	0c_	1g	0r
1F	.	1a	.
=165	=165	=165	=165
2E\	0c_	2g\	0r
1F	.	1a	.
4E\	.	4g\	.
4D\	.	4f\	.
=166	=166	=166	=166
0A	0c]	0e	1r
.	.	.	1a
=167	=167	=167	=167
0r	[0d	0r	2a/
.	.	.	2b-\
.	.	.	2a/
.	.	.	[2b-i\
=168	=168	=168	=168
1r	0d_	1r	2b-\]
.	.	.	4a/
.	.	.	4g/
1D	.	1A	1f
=169	=169	=169	=169
2D\	0d_	2A/	0r
2G\	.	2B-\	.
2F\	.	2A/	.
[2G\	.	[2B-i\	.
=170	=170	=170	=170
2G\]	0d]	2B-\]	1r
4F\	.	4A/	.
4E\	.	4G/	.
1D	.	1F	1a
=171	=171	=171	=171
[0A	[0c	2r	[0cc
.	.	2f\	.
.	.	2e\	.
.	.	[2a\	.
=172	=172	=172	=172
0A]	0c]	4a\]	1.cc]
.	.	4g\	.
.	.	1g	.
.	.	2f\	4b\
.	.	.	4a/
=173	=173	=173	=173
1G	[0d	2g\	1b
.	.	2d\	.
2F\	.	1f	2a/
[2B-\	.	.	[2dd\
=174	=174	=174	=174
4B-\]	0d]	2r	4dd\]
4A\	.	.	4cc\
1A	.	2f\	1cc
.	.	1g	.
2G\	.	.	2b\
=175	=175	=175	=175
2.A\	[0c	2e\	2cc\
.	.	2a\	2f/
4B\	.	.	.
2c\	.	2g\	2e/
[2F\	.	[2f\	[2a/
=176	=176	=176	=176
2F\]	0c]	2f\]	4a/]
.	.	.	4g/
2G\	.	4e\	1g
.	.	4d\	.
1A	.	1c	.
.	.	.	2f#i/
=177	=177	=177	=177
1G	0r	2r	1g
.	.	2d\	.
1A	.	2c\	1r
.	.	[2f\	.
=178	=178	=178	=178
1E	0r	4f\]	0r
.	.	4e\	.
.	.	1e	.
1F	.	.	.
.	.	2d\	.
=179	=179	=179	=179
1C	0r	1e	2r
.	.	.	2g/
1D	.	1r	2f/
.	.	.	[2b-\
=180	=180	=180	=180
1AA	0r	0r	4b-\]
.	.	.	4a/
.	.	.	1a
1BB-i	.	.	.
.	.	.	2g/
=181	=181	=181	=181
0AA	[0c	1r	[0a
.	.	[1e	.
=182	=182	=182	=182
0A	0c]	1e]	0a]
.	.	1f	.
=183	=183	=183	=183
[0G	[0d	1g	[0b-i
.	.	1g	.
=184	=184	=184	=184
0G]	0d]	2g\	0b-]
.	.	2g\	.
.	.	1g	.
=185	=185	=185	=185
[0D	[0d	2.f\	1a
.	.	4g\	.
.	.	4a\	1d
.	.	4b-i\	.
.	.	[2a\	.
=186	=186	=186	=186
0D]	0d]	4a\]	1.a
.	.	4g\	.
.	.	1g	.
.	.	2f\	2b\
=187	=187	=187	=187
1.C	[0e	1g	1.cc
.	.	1c	.
2D\	.	.	4b\
.	.	.	4a/
=188	=188	=188	=188
1E	0e]	2B\	1g
.	.	1c	.
1AA	.	.	1a
.	.	4B\	.
.	.	4A/	.
=189	=189	=189	=189
1.E	[0g	1G	1r
.	.	1e	[1b
2F\	.	.	.
=190	=190	=190	=190
1G	0g_	2d\	1b]
.	.	1e	.
1C	.	.	1cc
.	.	4d\	.
.	.	4c\	.
=191	=191	=191	=191
0G	0g]	2B\	1dd
.	.	2c\	.
.	.	2d\	1dd
.	.	2e\	.
=192	=192	=192	=192
0D	0f	2f\	2dd\
.	.	2g\	2dd\
.	.	[1a	1dd
=193	=193	=193	=193
[0A	[0e	0a_	2.cc\
.	.	.	4dd\
.	.	.	4ee\
.	.	.	4ff\
.	.	.	[2ee\
=194	=194	=194	=194
0A]	0e]	0a_	4ee\]
.	.	.	4dd\
.	.	.	1dd
.	.	.	2cc#i\
=195	=195	=195	=195
0r	1f	1a]	2dd\
.	.	.	2a/
.	1e	1g	2b\
.	.	.	[2cc\
=196	=196	=196	=196
0r	2f\	2a\	4cc\]
.	.	.	4dd\
.	2e\	2g\	2ee\
.	2f\	2a\	2dd\
.	2e\	2g\	[2ee\
=197	=197	=197	=197
0r	1f	1a	2ee\]
.	.	.	2dd\
.	1e	1A	1ee
=198	=198	=198	=198
0r	2f\	2d\	2a/
.	2e\	2c\	2ee\
.	2f\	2d\	2a/
.	2e\	2c\	[2ee\
=199	=199	=199	=199
1r	2f\	2d\	4ee\]
.	.	.	4dd\
.	2d\	2B\	1dd
1A	1e	1A	.
.	.	.	2cc#i\
=200	=200	=200	=200
2.B-\	[0d	0r	2dd\
.	.	.	2.ff\
4A\	.	.	.
2F\	.	.	.
.	.	.	4ee\
[2G\	.	.	4dd\
.	.	.	4cc\
=201	=201	=201	=201
2G\]	0d]	1r	2b-i\
2F\	.	.	2a/
2G\	.	2.d\	2b-i\
2F\	.	.	[2a/
.	.	4c\	.
=202	=202	=202	=202
1D	0r	4d\	2a/]
.	.	4e\	.
.	.	2.f\	2.dd\
2r	.	.	.
.	.	4e\	4cc\
[2G\	.	4d\	4b-i\
.	.	4c\	4a/
=203	=203	=203	=203
2G\]	0r	2B-i\	2g/
2F\	.	2A/	1a
2G\	.	1B-i	.
2E\	.	.	2g/
=204	=204	=204	=204
2.F\	0r	0A	2a/
.	.	.	2.cc\
4E\	.	.	.
2C/	.	.	.
.	.	.	4b\
[2D\	.	.	4a/
.	.	.	4g/
=205	=205	=205	=205
2D\]	0r	1r	2f/
2C/	.	.	2e/
2D\	.	2.A/	2f/
2C/	.	.	[2e/
.	.	4G/	.
=206	=206	=206	=206
1AA	0r	4A/	2e/]
.	.	4B\	.
.	.	2.c\	2.a/
2r	.	.	.
.	.	4B\	4g/
[2D\	.	4A/	4f/
.	.	4G/	4e/
=207	=207	=207	=207
2D\]	0r	2F/	2d/
2C/	.	2E/	1e
1D	.	1F	.
.	.	.	2d/
=208	=208	=208	=208
1.AA	[0c	1E	0e
.	.	1r	.
2BB/	.	.	.
=209	=209	=209	=209
2C/	0c_	2e\	0r
2D\	.	2f\	.
[1E	.	1g	.
=210	=210	=210	=210
2E\]	0c_	1g	0r
2C/	.	.	.
2.F\	.	1a	.
4E\	.	.	.
=211	=211	=211	=211
1.C	0c_	2g\	2e/
.	.	2f\	2f/
.	.	1e	1g
2D\	.	.	.
=212	=212	=212	=212
2E\	0c_	0r	1g
2C/	.	.	.
1F	.	.	1a
=213	=213	=213	=213
1E	0c]	0r	2g/
.	.	.	2f/
1A	.	.	1e
=214	=214	=214	=214
2r	[0d	2r	2r
1D	.	1A	1f
2D\	.	2A/	2f/
=215	=215	=215	=215
2D\	0d_	2B-\	2f/
2D\	.	2A/	2f/
1G	.	1B-i	1g
=216	=216	=216	=216
1.F	0d_	1.A	1.a
2BB-/	.	[2B-i\	2d/
=217	=217	=217	=217
[0BB-i	0d_	2B-\]	1d
.	.	4A/	.
.	.	4G/	.
.	.	2B-i\	[1ff
.	.	2A/	.
=218	=218	=218	=218
0BB-]	0d_	1F	1ff]
.	.	[1B-i	1ff
=219	=219	=219	=219
1r	0d]	0B-]	1ff
1BB-i	.	.	1ff
=220	=220	=220	=220
1C	[0c	1G	2.ee\
.	.	.	4dd\
2AA/	.	1A	4cc\
.	.	.	4b\
[2F\	.	.	[2a/
=221	=221	=221	=221
2F\]	0c_	1F	2a/]
4E\	.	.	4g/
4D\	.	.	4f/
1C	.	1G	1e
=222	=222	=222	=222
2r	0c_	2.A/	2r
1F	.	.	1a
.	.	4B\	.
.	.	4c\	.
.	.	4d\	.
2E\	.	2e\	2g/
=223	=223	=223	=223
2F\	0c]	2A/	2a/
2E\	.	2e\	2g/
2F\	.	2r	2a/
2E\	.	[2e\	2g/
=224	=224	=224	=224
2C/	0r	4e\]	2e/
.	.	4d\	.
1A	.	2e\	1cc
.	.	2f\	.
2G\	.	2g\	2b\
=225	=225	=225	=225
2A\	0r	0e	2cc\
2G\	.	.	2b\
2A\	.	.	2cc\
2G\	.	.	2b\
=226	=226	=226	=226
1E	0r	2r	1g
.	.	1e	.
1F	.	.	1a
.	.	2d\	.
=227	=227	=227	=227
2E\	0r	2e\	2.g/
2.G\	.	2d\	.
.	.	.	4f/
.	.	2e\	2g/
4E\	.	.	.
4F\	.	2d\	2a/
4G\	.	.	.
=228	=228	=228	=228
2E\	0r	2e\	2.g/
2.G\	.	2B\	.
.	.	.	4f/
.	.	2e\	2g/
4E\	.	.	.
4F\	.	2d\	2a/
4G\	.	.	.
=229	=229	=229	=229
2.C/	0r	2e\	2g/
.	.	2c\	1a
4D\	.	.	.
1E	.	1B	.
.	.	.	2g#i/
=230	=230	=230	=230
1AA	[0c	[0A	0a
[1F	.	.	.
=231	=231	=231	=231
1F]	0c]	0A_	1r
1F	.	.	[1a
=232	=232	=232	=232
1F	0d	0A]	1a]
1F	.	.	1a
=233	=233	=233	=233
0C	0e	0c	1g
.	.	.	1e
=234	=234	=234	=234
0D	0d	1.F	1.f
.	.	2G/	4e/
.	.	.	4d/
=235	=235	=235	=235
0AA	0e	1A	0c
.	.	1A	.
=236	=236	=236	=236
0BB	0d	0D	0f
=237	=237	=237	=237
0C	0c	[0G	0e
=238	=238	=238	=238
0GG	[0B	0G]	[0d
=239	=239	=239	=239
0D	0B]	0F	0d]
=240	=240	=240	=240
0C	0c	1E	1e
.	.	[1G	1cc
=241	=241	=241	=241
1GG	1d	2G/]	1b
.	.	2F/	.
1AA	1c	1E	1a
=242	=242	=242	=242
0BB-	0d	2D/	2g/
.	.	2C/	1f
.	.	1D	.
.	.	.	4e/
.	.	.	4d/
=243	=243	=243	=243
[0AAl	[0cl	[0Al	2f/
.	.	.	2e/
.	.	.	2.a/
.	.	.	4g/
=244	=244	=244	=244
0AA]	0c]	0A]	0el
!!LO:LB:i:g=z
=245||	=245||	=245||	=245||
*>D	*>D	*>D	*>D
!!section: Et unam sanctam
!!!OMD: Et unam sanctam
*clefF4	*clefGv2	*clefGv2	*clefG2
*k[]	*k[]	*k[]	*k[]
*M3/1	*M3/1	*M3/1	*M3/1
*met(O)	*met(O)	*met(O)	*met(O)
0.r	0.r	0A	1.e
.	.	.	2f/
.	.	1B-	1g
=246	=246	=246	=246
0.r	0.r	1A	1a
.	.	2B-i\	2g/
.	.	2A/	2f/
.	.	1B-i	1d
=247	=247	=247	=247
0.r	0.r	0A	1c
.	.	.	2r
.	.	.	2c/
.	.	2r	2f/
.	.	2G/	2g/
=248	=248	=248	=248
0.r	0.r	2c\	1a
.	.	2d\	.
.	.	1e	2r
.	.	.	2c/
.	.	2r	2f/
.	.	2G/	2g/
=249	=249	=249	=249
0.r	0.r	2c\	2a/
.	.	2d\	2b\
.	.	2e\	2cc\
.	.	2f\	2a/
.	.	2.g\	2b\
.	.	.	2dd\
.	.	4f\	.
=250	=250	=250	=250
0.r	0.r	4e\	2cc\
.	.	4d\	.
.	.	2f\	2a/
.	.	4e\	2b\
.	.	4d\	.
.	.	4c\	2.cc\
.	.	4B\	.
.	.	4A/	.
.	.	4G/	4b\
.	.	[2A/	4a/
.	.	.	4g/
=251	=251	=251	=251
0.r	0.r	4A/]	2f/
.	.	4G/	.
.	.	4A/	1e
.	.	4B\	.
.	.	2c\	.
.	.	2d\	1a
.	.	1B	.
.	.	.	2g#i/
=252	=252	=252	=252
2r	[0.c	1A	0a
2.A\	.	.	.
.	.	2r	.
4G\	.	.	.
4F\	.	2A/	.
8E\L	.	.	.
8D\J	.	.	.
2E\	.	2G/	2r
2AA/	.	2A/	[2a/
=253	=253	=253	=253
2r	0.c_	1F	4a/]
.	.	.	4g/
2.A\	.	.	4f/
.	.	.	8e/L
.	.	.	8d/J
.	.	2r	2e/
4G\	.	.	.
4F\	.	2A/	2A/
8E\L	.	.	.
8D\J	.	.	.
2E\	.	2G/	2r
2AA/	.	2A/	[2a/
=254	=254	=254	=254
2r	0.c]	1F	4a/]
.	.	.	4g/
2.A\	.	.	4f/
.	.	.	8e/L
.	.	.	8d/J
.	.	1A	2e/
4G\	.	.	.
4F\	.	.	2A/
8E\L	.	.	.
8D\J	.	.	.
1E	.	1G	2r
.	.	.	2e/
=255	=255	=255	=255
1D	1.d	0A	2f/
.	.	.	4g/
.	.	.	2a/
2r	.	.	.
.	.	.	4b\
2.A\	1e	.	2.cc\
.	.	2c\	.
4G\	.	.	4b\
4F\	2f\	2d\	2a/
8E\L	.	.	.
8D\J	.	.	.
=256	=256	=256	=256
2E\	2g\	2B\	2g/
2AA/	2e\	2c\	1a
2r	2f\	2d\	.
2.A\	2e\	2c\	2.cc\
.	1f	4A/	.
4G\	.	4B\	4b\
4F\	.	4c\	2a/
8E\L	.	4d\	.
8D\J	.	.	.
=257	=257	=257	=257
2E\	2.e\	2B\	2g/
2.A\	.	1A	2.cc\
.	4d\	.	.
.	2e\	.	.
4G\	.	.	4b\
4F\	2f\	2.d\	2a/
8E\L	.	.	.
8D\J	.	.	.
2E\	1e	.	2g/
.	.	4B\	.
2AA/	.	2c#i\	[2a/
=258	=258	=258	=258
2r	1d	1d	4a/]
.	.	.	4g/
2.D\	.	.	4f/
.	.	.	8e/L
.	.	.	8d/J
.	1r	1r	2e/
4C/	.	.	.
4BB/	.	.	2d/
8AA/L	.	.	.
8GG/J	.	.	.
2AA/	1r	2r	1r
2GG/	.	[2d\	.
=259	=259	=259	=259
2r	0.r	4d\]	0.r
.	.	4c\	.
2.G\	.	4B\	.
.	.	8A/L	.
.	.	8G/J	.
.	.	2A/	.
4F\	.	.	.
4E\	.	2G/	.
8D/L	.	.	.
8C/J	.	.	.
2D\	.	2r	.
2C/	.	[2g\	.
=260	=260	=260	=260
2r	0.r	4g\]	1r
.	.	4f\	.
2.c\	.	4e\	.
.	.	8d\L	.
.	.	8c\J	.
.	.	2d\	1r
4B\	.	.	.
4A\	.	2c\	.
8G\L	.	.	.
8F\J	.	.	.
2G\	.	1r	2r
2F\	.	.	[2a/
=261	=261	=261	=261
2r	0.r	1r	4a/]
.	.	.	4g/
2.A\	.	.	4f/
.	.	.	8e/L
.	.	.	8d/J
.	.	1r	2e/
4G\	.	.	.
4F\	.	.	2d/
8E\L	.	.	.
8D\J	.	.	.
2E\	.	2r	1r
2D\	.	[2d\	.
=262	=262	=262	=262
2r	0.r	4d\]	2r
.	.	4c\	.
2.E\	.	4B\	2.g/
.	.	4A/	.
.	.	2G/	.
4D\	.	.	4f/
4C/	.	2A/	4e/
8BB/L	.	.	8d/L
8AA/J	.	.	8c/J
2BB/	.	2F/	2d/
2AA/	.	[2A/	2c/
=263	=263	=263	=263
2r	0.c	4A/]	2r
.	.	4B\	.
2.A\	.	4c\	2.cc\
.	.	4d\	.
.	.	2e\	.
4G\	.	.	4b\
2F\	.	2f\	2a/
4E\	.	1g	2g/
4D\	.	.	.
2E\	.	.	2e/
=264	=264	=264	=264
2D\	2d\	1a	2f/
2.A\	2A/	.	4e/
.	.	.	2cc\
.	2c\	1A	.
4G\	.	.	4b\
2F\	2d\	.	1a
4E\	1e	1B	.
4D\	.	.	.
2E\	.	.	2g#i/
=265	=265	=265	=265
*M9/2	*M9/2	*	*M9/2
*met(3)	*met(3)	*	*met(3)
3%2AA	3%2c	1A	3%2a
3A\	3c\	.	3cc\
3G\	3%2d	1r	3b\
3.F\	.	.	3%2a
.	3c\	.	.
6E\	.	.	.
3D\	3d\	1r	3f/
3%2E	3B\	.	3.g/
.	[3c\	.	.
.	.	.	6f/
=266	=266	=266	=266
*	*	*M9/2	*
*	*	*met(3)	*
3%2AA	3c\]	3.c\	6e/
.	.	.	6d/
.	3%2A	.	3%2c
.	.	6d\	.
3A\	.	6e\	.
.	.	6f\	.
3G\	3B\	3g\	3d/
3.F\	3c\	3a\	3.f/
.	3.d\	3%2f	.
6E\	.	.	6g/
3D\	.	.	3%2a
.	6c\	.	.
3%2E	3%2B	3%2e	.
.	.	.	3g#i/
=267	=267	=267	=267
*M2/1	*M2/1	*M2/1	*M2/1
*met(C|)	*met(C|)	*met(C|)	*met(C|)
2AA/	1A	1c	2a/
2A\	.	.	2cc\
2G\	2B\	2d\	2b\
[2F\	[2c\	2A/	[2a/
=268	=268	=268	=268
2F\]	2c\]	1f	2a/]
4E\	2d\	.	4g/
4D\	.	.	4f/
2E\	2B\	1e	2g/
2AA/	2A/	.	2a/
=269	=269	=269	=269
2r	2B\	2d\	2g/
2A\	2A/	2c\	2a/
2G\	2B\	2d\	2d/
[2F\	[2c\	2A/	[2a/
=270	=270	=270	=270
2F\]	2c\]	1f	2a/]
4E\	2d\	.	4g/
4D\	.	.	4f/
1E	1B	1e	4g/
.	.	.	4f/
.	.	.	4e/
.	.	.	4d/
=271	=271	=271	=271
1AA	1A	2r	2c/
.	.	2.A/	2d/
1A	1c	.	2e/
.	.	4B\	.
.	.	2c\	2f/
=272	=272	=272	=272
1G	1B	2d\	1g
.	.	2B\	.
1F	1A	2c\	[1a
.	.	2d\	.
=273	=273	=273	=273
1E	1c	1e	2a/]
.	.	.	2g/
1D	1d	1f	2a/
.	.	.	[2b\
=274	=274	=274	=274
0E	0B	[0el	2b\]
.	.	.	1a
.	.	.	2g#i/
=275	=275	=275	=275
0AAl	0Al	0e]	0al
==	==	==	==
*-	*-	*-	*-
!!!RDF**kern: l=long note in original notation
!!!RDF**kern: i=editorial accidental
!!!ENC:	Jesse Rodin; Victoria Chang 2011/04/11
!!!END:	2011/04/11/
!!!EED:	Jesse Rodin
!!!EEV: 2012/04/24/
!!attribution-level@Jos: 1 (secure)
!!!ONB:	Translated from MusicXML and edited on 2011/04/17/ by Craig Sapp
!!muse2ps: T^@{OPR}^u^@{ONM}{. }@{OTL}^C^@{COM}\n@{SCT}^i2I100v90,90,90,150c95Q16
